X:1
T: Miss Esther Oswald of Auchencruive
C:
R:Strathspey
Q: 128
K:G
M:4/4
L:1/16
|:D2|G4 B3G F3G A3D|G4 d3B Gg3 d3B|c3a Bg3 A3G FD3|E2FG BAGF G6 D2|
G4 B3G F3G A3D|G4 d3B Gg3 d3B|c3a Bg3 A3G FD3|E2FG BAGF G6 d2|
g3d g3G F3G A3D|g3d g3B bagf g3B|c3a Bg3 A3G F3D|E2FG BAGF G4 G3d|
g3d g3G F3G A3D|g3d g3B bagf g3B|c3a Bg3 A3B c3e|d3g fgaf g6:|
